X:182
T:Scotch Reel. VWMLa.182
%%VWML:Anon2-3049-p113-0
F:http://www.vwml.org/record/Anon2/3049/p113
S:Anon. MS, late 18thC, Vaughan Williams Mem. Library
O:England;Yorkshire
Z:vmp/efdss.Simon Wilson. Reviewed PJH 2008.
M:C|
L:1/8
Q:1/2=90
K:A
f|e!turn!(ABA) E!turn!(ABA)|e!turn!(ABA) (f3a)|\
e!turn!(ABA) E!turn!(ABA)|(c>d)(B>c)A3:|
|e|!turn!fefga3g|fedc dcBe|\
!turn!f>efg agfe|(dc)ac (c2B)>f|
e!turn!(ABA) E!turn!(ABA)|e!turn!(ABA)(f3a)|\
e!turn!(ABA) E!turn!(ABA)|(c>d)(B>c)A2|]
